X:1
T:Title
%%score { 1 | 2 }
L:1/8
M:4/4
K:Bb
V:1 treble nm="Grand Piano"
V:2 bass 
V:1
 z4 z2[Q:1/4=100] [DF][DF] | [DG]2 DD D2 [DF][DF] | [EG]2 EE E2 CD | E2 FG A2 GF | %4
 [EG]2 [DF][_D=E] [=DF]2 [DF][DF] | [EG]2 [FG][FG] [EG]2 [E^F][EG] | %6
 [FA]2 [GA][GA] [^FA]2 [EG][=FA] | [GB]2 [_AB][AB] [GB][GB][Gc][G_d] | %8
[M:17/16] [^Fd]/-[Fd]/-[Fd]-<[Fd]DD/-D/-D/-D/-D/-D-<D |[M:1/8] [Dd] | %10
[M:4/4] [Fd]2 [Ec][DB] [DB]2 [DA][DG] | .[EA]2 .A2 A3 F | A A2 G F2 E2 |[M:3/4] D6 |[M:1/4] [Fd]2 | %15
[M:4/4] [Fd]2 [Ec][DB] [DB]2 [DA][DG] | .[EA]2 .A2 A3 F | A A2 G F2 c2 |[M:9/8] [DB]8- [DB] |] %19
V:2
 z4 z2 [B,,B,][B,,B,] | [B,,B,]2 [B,,F,B,][B,,F,B,] [B,,F,B,]2 [B,,B,][B,,B,] | %2
 [C,A,]2 [F,A,C][F,A,C] [F,A,C]2 [F,A,][F,B,] | [F,A,C]2 [F,A,E][F,B,E] [F,CE]2 [F,B,E][F,A,E] | %4
 [B,,B,]2 [B,,F,][B,,G,] [B,,F,]2 [B,,B,][B,,B,] | [E,B,]2 [D,=B,][D,B,] [C,C]2 [C,C][C,C] | %6
 [F,C]2 [=E,_D][E,D] [D,=D]2 [D,D][D,D] | [G,D]2 [F,D][F,D] [E,E][E,B,] [E,G,]2 | %8
[M:17/16] [D,A,]/-[D,A,]/-[D,A,]-<[D,A,][D,^F,][D,F,]/-[D,F,]/-[D,F,]/-[D,F,]/-[D,F,]/-[D,F,]-<[D,F,] | %9
[M:1/8] [B,,B,] |[M:4/4] [B,,B,]2 [B,,F,][B,,F,] [B,,F,]2 [B,,F,][B,,F,] | %11
 .[C,F,]2 .[F,CE]2 [F,CE]3 [F,A,E] | [F,CE] [F,CE]2 [F,B,E] [F,B,D]2 [F,A,C]2 |[M:3/4] [B,,B,]6 | %14
[M:1/4] [B,,B,]2 |[M:4/4] [B,,B,]2 [B,,F,][B,,F,] [B,,F,]2 [B,,F,][B,,F,] | %16
 .[C,F,]2 .[F,CE]2 [F,CE]3 [F,A,E] | [F,CE] [F,CE]2 [F,B,E] [F,A,E]2 [F,A,E]2 | %18
[M:9/8] [B,,B,]8- [B,,B,] |] %19

